assets/symbols/mulberry/spade.svg

<svg height="850.394" viewBox="0 0 850.394 850.394" width="850.394" xmlns="http://www.w3.org/2000/svg"><path d="m452.91 539.2h93.939c0 146.6-53.76 265.41-119.92 265.41-66.24 0-119.91-118.811-119.91-265.41z" fill="#f73900"/><path d="m542.82 53.59c0 62.83-38.761 115.29-90.71 128.18a99.382 99.382 0 0 1 -25.181 3.22c-8.05 0-15.8-.91-23.35-2.72-52.86-12.18-92.53-65.14-92.53-128.68zm-188.28 32.12c0 37.05 32.42 67.16 72.39 67.16 39.98 0 72.301-30.11 72.301-67.16z" fill="#9e5b16"/><path d="m426.93 184.99c8.67 0 17.12-1.11 25.181-3.22l.8 3.22v354.21h-50.04v-354.21l.71-2.72c7.549 1.81 15.299 2.72 23.349 2.72z" fill="#9e5b16"/><g fill="none"><g stroke="#000" stroke-width="24.028"><path d="m499.23 85.71c0 37.05-32.32 67.16-72.301 67.16-39.97 0-72.39-30.11-72.39-67.16z"/><path d="m403.58 182.27c-52.86-12.18-92.53-65.14-92.53-128.68h231.77c0 62.83-38.761 115.29-90.71 128.18a99.382 99.382 0 0 1 -25.181 3.22c-8.049 0-15.799-.91-23.349-2.72zm49.33 356.93h93.939c0 146.6-53.76 265.41-119.92 265.41-66.24 0-119.91-118.811-119.91-265.41zm-50.04-354.21v354.21m50.04-354.21v354.21"/></g><path d="m0 0h850.394v850.394h-850.394z"/></g></svg>

<svg xmlns="http://www.w3.org/2000/svg" width="850.394" height="850.394" viewBox="0 0 850.394 850.394" overflow="visible"><path d="M452.91 539.2h93.939c0 146.6-53.76 265.41-119.92 265.41-66.24 0-119.91-118.811-119.91-265.41H452.91z" fill="#f73900"/><path d="M542.82 53.59c0 62.83-38.761 115.29-90.71 128.18a99.382 99.382 0 0 1-25.181 3.22c-8.05 0-15.8-.91-23.35-2.72-52.86-12.18-92.53-65.14-92.53-128.68H542.82zM354.54 85.71c0 37.05 32.42 67.16 72.39 67.16 39.98 0 72.301-30.11 72.301-67.16H354.54z" fill="#9e5b16"/><path d="M426.93 184.99c8.67 0 17.12-1.11 25.181-3.22l.8 3.22V539.2h-50.04V184.99l.71-2.72c7.549 1.81 15.299 2.72 23.349 2.72z" fill="#9e5b16"/><g fill="none" stroke="#000" stroke-width="24.028"><path d="M499.23 85.71c0 37.05-32.32 67.16-72.301 67.16-39.97 0-72.39-30.11-72.39-67.16H499.23z"/><path d="M403.58 182.27c-52.86-12.18-92.53-65.14-92.53-128.68h231.77c0 62.83-38.761 115.29-90.71 128.18a99.382 99.382 0 0 1-25.181 3.22c-8.049 0-15.799-.91-23.349-2.72zM452.91 539.2h93.939c0 146.6-53.76 265.41-119.92 265.41-66.24 0-119.91-118.811-119.91-265.41H452.91zM402.87 184.99V539.2M452.91 184.99V539.2"/></g><path fill="none" d="M0 0h850.394v850.394H0z"/></svg>
